src/symbolic/status/gnome-pie-symbolic.svg

<?xml version="1.0" encoding="UTF-8" standalone="no"?>
<svg
   xmlns:dc="http://purl.org/dc/elements/1.1/"
   xmlns:cc="http://creativecommons.org/ns#"
   xmlns:rdf="http://www.w3.org/1999/02/22-rdf-syntax-ns#"
   xmlns:svg="http://www.w3.org/2000/svg"
   xmlns="http://www.w3.org/2000/svg"
   xmlns:sodipodi="http://sodipodi.sourceforge.net/DTD/sodipodi-0.dtd"
   xmlns:inkscape="http://www.inkscape.org/namespaces/inkscape"
   width="16"
   height="16"
   version="1.1"
   id="svg7"
   sodipodi:docname="gnome-pie-symbolic.svg"
   inkscape:version="0.92.2 2405546, 2018-03-11">
  <metadata
     id="metadata11">
    <rdf:RDF>
      <cc:Work
         rdf:about="">
        <dc:format>image/svg+xml</dc:format>
        <dc:type
           rdf:resource="http://purl.org/dc/dcmitype/StillImage" />
      </cc:Work>
    </rdf:RDF>
  </metadata>
  <sodipodi:namedview
     pagecolor="#ffffff"
     bordercolor="#666666"
     borderopacity="1"
     objecttolerance="10"
     gridtolerance="10"
     guidetolerance="10"
     inkscape:pageopacity="0"
     inkscape:pageshadow="2"
     inkscape:window-width="1920"
     inkscape:window-height="1026"
     id="namedview9"
     showgrid="false"
     inkscape:zoom="14.75"
     inkscape:cx="8"
     inkscape:cy="8"
     inkscape:window-x="0"
     inkscape:window-y="28"
     inkscape:window-maximized="1"
     inkscape:current-layer="svg7" />
  <defs
     id="defs3">
    <style
       id="current-color-scheme"
       type="text/css">
   .ColorScheme-Text { color:#dfdfdf; } .ColorScheme-Highlight { color:#5294e2; }
  </style>
  </defs>
  <path
     style="fill:#555555;fill-opacity:1"
     class="ColorScheme-Text"
     d="M 10.212891 1.0058594 C 10.06769 0.99571185 9.9235458 0.9970099 9.7792969 1.0078125 C 8.8190649 1.0798299 7.9108944 1.6126158 7.3964844 2.5117188 C 6.5742 3.9501808 7.0730854 5.7811453 8.5117188 6.6035156 C 9.9503522 7.4258 11.781317 6.9267433 12.603516 5.4882812 C 13.425715 4.0498195 12.926914 2.2188546 11.488281 1.3964844 L 11.488281 1.3945312 C 11.083184 1.1632404 10.648491 1.0363019 10.212891 1.0058594 z M 3.8535156 3.0058594 C 3.2133014 3.0538635 2.6061809 3.4084817 2.2636719 4.0078125 C 1.7155454 4.9666937 2.0489314 6.1882816 3.0078125 6.7363281 C 3.9666938 7.2846145 5.1882817 6.9508288 5.7363281 5.9921875 C 6.2843746 5.0330663 5.9508286 3.8117982 4.9921875 3.2636719 C 4.632557 3.0581345 4.2376282 2.977057 3.8535156 3.0058594 z M 2.3886719 8.0058594 C 1.9086426 8.041856 1.4541162 8.3059021 1.1972656 8.7558594 C 0.78615476 9.4750409 1.0368278 10.391773 1.7558594 10.802734 C 2.474891 11.213695 3.3916986 10.962572 3.8027344 10.244141 C 4.2137704 9.5249582 3.9631722 8.6089765 3.2441406 8.1972656 C 2.9745413 8.0435302 2.6767196 7.9841115 2.3886719 8.0058594 z M 11.853516 8.0058594 C 11.212667 8.0538624 10.606097 8.408567 10.263672 9.0078125 C 9.7156296 9.966285 10.04934 11.188287 11.007812 11.736328 C 11.966285 12.28437 13.188287 11.950659 13.736328 10.992188 C 14.28437 10.033716 13.951459 8.8117133 12.992188 8.2636719 C 12.63296 8.0580563 12.237545 7.9767372 11.853516 8.0058594 z M 8.5976562 12.001953 C 8.0140584 11.963693 7.4384529 12.273032 7.1601562 12.828125 C 6.788844 13.569249 7.0877508 14.468532 7.828125 14.839844 C 8.5684992 15.211157 9.4685327 14.912248 9.8398438 14.171875 C 10.211157 13.431502 9.912256 12.531468 9.171875 12.160156 C 8.9865934 12.067146 8.7919388 12.014705 8.5976562 12.001953 z M 3.9257812 13.003906 C 3.605761 13.027896 3.3040187 13.204012 3.1328125 13.503906 C 2.8588427 13.983071 3.0245423 14.595238 3.5039062 14.869141 C 3.9830702 15.143044 4.5951708 14.975258 4.8691406 14.496094 C 5.1430438 14.01693 4.9753242 13.404762 4.4960938 13.130859 C 4.3162907 13.028228 4.1177135 12.989245 3.9257812 13.003906 z"
     id="path5" />
</svg>

<svg xmlns="http://www.w3.org/2000/svg" width="16" height="16" version="1.1" id="svg7"><defs id="defs3"><style id="current-color-scheme" type="text/css"></style></defs><path d="M10.213 1.006a2.998 2.998 0 0 0-2.816 1.506 2.998 2.998 0 1 0 4.092-1.115v-.002a2.985 2.985 0 0 0-1.276-.39zm-6.36 2a2 2 0 1 0 .293 3.989 2 2 0 0 0-.292-3.99zm-1.464 5a1.5 1.5 0 1 0 .855.191 1.494 1.494 0 0 0-.855-.191zm9.465 0a1.999 1.999 0 1 0 .291 3.987 1.999 1.999 0 0 0-.291-3.987zm-3.256 3.996a1.5 1.5 0 1 0 1.242 2.17c.371-.74.072-1.64-.668-2.012a1.497 1.497 0 0 0-.574-.158zm-4.672 1.002a1 1 0 1 0 .57.127.993.993 0 0 0-.57-.127z" id="path5" fill="#555" fill-opacity="1" color="#dfdfdf"/></svg>
